!!!id: BC081
!!!page: 104-105
!!!COM: O'Brien, Oscar
!!!LYR: Morisset, Maurice
!!!PTL@@FR: Les 100 plus belles chansons
!!!OTL@@FR: La grand' d'mande
!!!PUB: La Bonne Chanson, inc.
!!!YEM: On ne peut reproduire, enregistrer ou diffuser en tout ou en partie le présent ouvrage, sous quelque procédé que ce soit, électronique, mécanique, photographique, sonore, magnétique ou autre, sans avoir obtenu au préalable l'autorisation écrite de l'éditrice.
!!!YEM-owner: Toutes les chansons qui appartenaient à Charles Marchand sont maintenant la propriété de La Bonne Chanson.
!!!PDT: 2011
!!!SMA: 2012 Bibliothèque nationale du Québec; Biblothèque nationale du Canada
!!!AGN-Laforte: Chanson strophique (avec refrain et vers répétés dans chaque strophe), 6:8(8/6),R:2(9); alternative labeling with *pline:2Ha/2Hb could accommodate the half-repeated lines.
!!!AGN-type: Chanson de mariage
!!!AGN-rime: suivies (aabbccdd); non-rhyming refrain.
!!!LYR-elision: title, grand' = grande, d'mande = demande;
**kern	**text	**text	**text	**text	**text	**text
*clefG2	*	*	*	*	*	*
*k[]	*	*	*	*	*	*
*C:	*	*	*	*	*	*
!!LO:TX:a:t=Allegro
*M2/4	*	*	*	*	*	*
*	*v:1	*v:2	*v:3	*v:4	*v:5	*v:6
*	*pline:1	*pline:9	*pline:17	*pline:25	*pline:33	*pline:41
{{8a	Ma-	Ma-	Ma-	L'mon-	Il	Ma-
16a	-de-	-de-	-de-	-sieur	tourn'	-dam',
16a	-moi-	-moi-	-moi-	a-	les	j'veux
=1	=1	=1	=1	=1	=1	=1
8a	-sell'	sell'	sell'	-jus-	yeux	vous
8a	est	pass'	en-	-te	vers	dir',
8e	au	le	-tend	son	le	sans
8e	sa-	tor-	l'gar-	lor-	pla-	fa-
=2	=2	=2	=2	=2	=2	=2
4a}	-lon.	-chon,	-çon,	-gnon,	-fond,	-çon,
*	*rp:ɔ̃	*rp:ɔ̃	*rp:ɔ̃	*rp:ɔ̃	*rp:ɔ̃	*rp:ɔ̃
*	*rf:lɔ̃	*rf:ʃɔ̃	*rf:sɔ̃	*rf:ɲɔ̃	*rf:fɔ̃	*rf:sɔ̃
*	*rs:a1	*rs:a2	*rs:a3	*rs:a4	*rs:a5	*rs:a3
=`	=`	=`	=`	=`	=`	=`
*	*pline:2	*pline:10=2r	*pline:18=2r	*pline:26=2r	*pline:34=2r	*pline:42=2r
*	*refrain	*refrain	*refrain	*refrain	*refrain	*refrain
*	*italic	*italic	*italic	*italic	*italic	*italic
!!LO:TX:a:B:t=Plus lent
{8.cc	Ah!	Ah!	Ah!	Ah!	Ah!	Ah!
16a	Sei-	Sei-	Sei-	Sei-	Sei-	Sei-
!!LO:PB:g=original
=3	=3	=3	=3	=3	=3	=3
4a	-gneur,	-gneur,	-gneur,	-gneur,	-gneur,	-gneur,
8e	que	que	que	que	que	que
8e	c'est	c'est	c'est	c'est	c'est	c'est
=4	=4	=4	=4	=4	=4	=4
4a}}	long!	long!	long!	long!	long!	long!
*	*rp:ɔ̃	*rp:ɔ̃	*rp:ɔ̃	*rp:ɔ̃	*rp:ɔ̃	*rp:ɔ̃
*	*rf:lɔ̃	*rf:lɔ̃	*rf:lɔ̃	*rf:lɔ̃	*rf:lɔ̃	*rf:lɔ̃
*	*rs:a1	*rs:a1	*rs:a1	*rs:a1	*rs:a1	*rs:a1
*	*Xitalic	*Xitalic	*Xitalic	*Xitalic	*Xitalic	*Xitalic
*	*Xrefrain	*Xrefrain	*Xrefrain	*Xrefrain	*Xrefrain	*Xrefrain
=`	=`	=`	=`	=`	=`	=`
*	*pline:3	*pline:11	*pline:19	*pline:27	*pline:35	*pline:43
*A:	*	*	*	*	*	*
!!LO:TX:a:B:t=a Tempo
{{8b	Tan-	Sur	L'voi-	Il	Peut-	Que
!!errata in original, pline:3, tantot = tantôt
16b	-tôt	le	-là	glis-	êtr'	j'aim'
16b	vien-	pia-	qui	-se	qu'il	votr'
=5	=5	=5	=5	=5	=5	=5
8b	-dra	-no,	vient	quel-	va	fill'
8b	l'p'tit	sur	d'fran-	-ques	fair[e]	de-
8cc#	Vail-	l'a-	-chir	mots	un	-puis
8a	-lan-	-bat-	la	d'a-	dis-	tou-
!!LO:PB:g=original
=6	=6	=6	=6	=6	=6	=6
4b}	-court!	-court!	cour,	-mour,	cours,	-jours,
*	*rp:u	*rp:u	*rp:u	*rp:u	*rp:u	*rp:u
*	*rf:kuʁ	*rf:kuʁ	*rf:kuʁ	*rf:muʁ	*rf:kuʁ	*rf:ʒuʁ
*	*rs:b1	*rs:b1	*rs:b1	*rs:b2	*rs:b1	*rs:b3
=`	=`	=`	=`	=`	=`	=`
*	*pline:4	*pline:12=4r	*pline:20=4r	*pline:28=4r	*pline:36=4r	*pline:44=4r
*	*refrain	*refrain	*refrain	*refrain	*refrain	*refrain
*	*italic	*italic	*italic	*italic	*italic	*italic
!!LO:TX:a:B:t=Plus lent
{8.cc#	Ah!	Ah!	Ah!	Ah!	Ah!	Ah!
16a	Sei-	Sei-	Sei-	Sei-	Sei-	Sei-
=7	=7	=7	=7	=7	=7	=7
4b	-gneur,	-gneur,	-gneur,	-gneur,	-gneur,	-gneur,
8b	que	que	que	que	que	que
8b	c'est	c'est	c'est	c'est	c'est	c'est
=8	=8	=8	=8	=8	=8	=8
4e}}	court!	court!	court!	court!	court!	court!
*	*rp:u	*rp:u	*rp:u	*rp:u	*rp:u	*rp:u
*	*rf:kuʁ	*rf:kuʁ	*rf:kuʁ*	*rf:kuʁ	*rf:kuʁ	*rf:kuʁ
*	*rs:b1	*rs:b1	*rs:b1	*rs:b1	*rs:b1	*rs:b1
*	*Xitalic	*Xitalic	*Xitalic	*Xitalic	*Xitalic	*Xitalic
*	*Xrefrain	*Xrefrain	*Xrefrain	*Xrefrain	*Xrefrain	*Xrefrain
=`	=`	=`	=`	=`	=`	=`
*	*pline:5	*pline:13	*pline:21	*pline:29	*pline:37	*pline:45
*a:	*	*	*	*	*	*
!!LO:TX:a:B:t=a Tempo
{{8a	Aus-	Faut	En-	N'a-	Mais	Et
16a	-si	qu'tout	-fin,	-t-il	v'là	qu'si
16a	faut	re-	il	dé-	la	vous
!!LO:PB:g=original
=9	=9	=9	=9	=9	=9	=9
8a	mettr'	-luis[e]	ti-	-jà	ma-	m'dé-
8a	chaqu'	à	-re	plus	-man	-si-
8e	chos[e]	son	la	rien	qui	-rez
8e	en	en-	son-	à	s'a-	pour
=10	=10	=10	=10	=10	=10	=10
4a}	plac[e],	-trée,	-nett[e],	dir[e]!	-mèn[e],	gendr[e],
*	*rp:a	*rp:e	*rp:ɛ	*rp:i	*rp:ɛ	*rp:ɑ̃
*	*rf:as,ə	*rf:ʁe	*rf:ɛt,ə	*rf:iʁ,ə	*rf:ɛn,ə	*rp:ɑ̃dʁ,ə
*	*rs:c	*rs:e1	*rs:g1	*rs:i	*rs:g2	*rs:k
=`	=`	=`	=`	=`	=`	=`
*	*pline:6	*pline:14	*pline:22	*pline:30	*pline:38	*pline:46
*	*refrain	*refrain	*refrain	*refrain	*refrain	*refrain
*	*italic	*italic	*italic	*italic	*italic	*italic
!!LO:TX:a:B:t=Plus lent
{8.ccn	Ah!	Ah!	Ah!	Ah!	Ah!	Ah!
16a	Sei-	Sei-	Sei-	Sei-	Sei-	Sei-
=11	=11	=11	=11	=11	=11	=11
4a	-gneur,	-gneur,	-gneur,	-gneur,	-gneur,	-gneur,
*	*Xitalic	*Xitalic	*Xitalic	*Xitalic	*Xitalic	*Xitalic
*	*Xrefrain	*Xrefrain	*Xrefrain	*Xrefrain	*Xrefrain	*Xrefrain
8e	quel-	quell'	quell'	quel	quell[e]	que
8e	-le	cor-	pi-	mar-	au-	c'est
!!LO:PB:g=original
=12	=12	=12	=12	=12	=12	=12
4a}}	chass[e]!	-vée!	-rouett[e]!	-tyr[e]!	-bain[e]!	tendr[e]!
*	*rp:a	*rp:e	*rp:ɛ	*rp:i	*rp:ɛ	*rp:ɑ̃
*	*rf:as,ə	*rf:ve	*rf:ɛt,ə	*rf:iʁ,ə	*rf:ɛn,ə	*rp:ɑ̃dʁ,ə
*	*rs:c	*rs:e2	*rs:g1	*rs:i	*rs:g2	*rs:k
=`	=`	=`	=`	=`	=`	=`
*	*pline:7	*pline:15	*pline:23	*pline:31	*pline:39	*pline:47
*A:	*	*	*	*	*	*
!!LO:TX:a:B:t=a Tempo
{{8b	A-	Mais	En-	N'faut	Es-	Lu-
16b	-fin	on	-tre,	pour-	-tu	cill',
16b	de	n'a	mon	-tant	ma-	tout
=13	=13	=13	=13	=13	=13	=13
8b	plair[e]	rien	cher,	pas	lad',	d'suit'
8b	à	sans	donn'	l'dé-	mon	j'veux
8b	l'hé-	pein'	ton	-cou-	brav[e]	é-
8b	-ri-	ni	cha-	-ra-	E-	-pou-
=14	=14	=14	=14	=14	=14	=14
4e}	-tier,	soin.	-peau,	ger!	loi?	-ser,
*	*rp:e	*rp:ẽ	*rp:o	*rp:e	*rp:a	*rp:e
*	*rf:tje	*rf:uẽ	*rf:po	*rf:ʒe	*rf:wa	*rf:ze
*	*rs:d1	*rs:f	*rs:h1	*rs:d2	*rs:j	*rs:d3
=`	=`	=`	=`	=`	=`	=`
*	*pline:8	*pline:16	*pline:24	*pline:32	*pline:40	*
*	*refrain	*refrain	*refrain	*refrain	*refrain	*refrain
*	*italic	*italic	*italic	*italic	*italic	*italic
!!LO:TX:a:B:t=Plus lent
{8.b	Ah!	Ah!	Ah!	Ah!	Ah!	Ah!
16b	Sei-	Sei-	Sei-	Sei-	Sei-	Sei-
!!LO:PB:g=original
=15	=15	=15	=15	=15	=15	=15
(8bL	-gneur,	-gneur,	-gneur,	-gneur,	-gneur,	-gneur,
*	*Xitalic	*Xitalic	*Xitalic	*Xitalic	*Xitalic	*Xitalic
*	*Xrefrain	*Xrefrain	*Xrefrain	*Xrefrain	*Xrefrain	*Xrefrain
8aJ)	.	.	.	.	.	.
8g#	quel	quel	que	quel	quel	un
8f#	mé-	tin-	t'es	dan-	é-	bai-
=16	=16	=16	=16	=16	=16	=16
4e}}	-tier!	-toin!	beau!	-ger!	-moi!	-ser!
*	*rp:e	*rp:ẽ	*rp:o	*rp:e	*rp:a	*rp:e
*	*rf:tje	*rf:uẽ	*rf:bo	*rf:ʒe	*rf:wa	*rf:ze
*	*rs:d1	*rs:f	*rs:h2	*rs:d2	*rs:j	*rs:d3
=||	=||	=||	=||	=||	=||	=||
=||:	=||:	=||:	=||:	=||:	=||:	=||:
*k[f#c#g#]	*	*	*	*	*	*
*>Refrain	*>Refrain	*>Refrain	*>Refrain	*>Refrain	*>Refrain	*>Refrain
*	*pline:R1	*	*	*	*	*
!!LO:TX:a:B:t=REFRAIN Solo–Reprise par le Choeur
!!LO:TX:a:B:t=Allegro
{{8.a	A-	.	.	.	.	.
16b	-lou-	.	.	.	.	.
=17	=17	=17	=17	=17	=17	=17
8cc#	-et-	.	.	.	.	.
8cc#	-te,	.	.	.	.	.
16b	gen-	.	.	.	.	.
16b	till[e]	.	.	.	.	.
*	*bis	*	*	*	*	*
16b	a-	.	.	.	.	.
16b	-lou-	.	.	.	.	.
!!LO:PB:g=original
=18	=18	=18	=18	=18	=18	=18
8a	-et-	.	.	.	.	.
8e}	-te,	.	.	.	.	.
*	*Xbis	*	*	*	*	*
*	*pline:R2	*	*	*	*	*
{8.a	Faut	.	.	.	.	.
16b	qu'tu	.	.	.	.	.
=19	=19	=19	=19	=19	=19	=19
8cc#	pens's	.	.	.	.	.
8cc#	bien-	.	.	.	.	.
16b	-tôt	.	.	.	.	.
16b	à	.	.	.	.	.
16b	t'ma-	.	.	.	.	.
16b	-ri-	.	.	.	.	.
=20	=20	=20	=20	=20	=20	=20
4a}}	er!	.	.	.	.	.
=:||	=:||	=:||	=:||	=:||	=:||	=:||
*-	*-	*-	*-	*-	*-	*-
!!!EED: Ève Poudrier
!!!EEV: 2025/07/22
!!!RNB: Partial barlines on top of the staff are encoded as =` but are not rendering on VHV. "Mademoiselle" standardized as "Mademoisell'" as in pline:9.
